public/icones/icone-delete.svg

<?xml version="1.0" standalone="no"?>
<!DOCTYPE svg PUBLIC "-//W3C//DTD SVG 20010904//EN" "http://www.w3.org/TR/2001/REC-SVG-20010904/DTD/svg10.dtd">
<!-- Created using Krita: https://krita.org -->
<svg xmlns="http://www.w3.org/2000/svg" 
    xmlns:xlink="http://www.w3.org/1999/xlink"
    xmlns:krita="http://krita.org/namespaces/svg/krita"
    xmlns:sodipodi="http://sodipodi.sourceforge.net/DTD/sodipodi-0.dtd"
    width="7.68pt"
    height="7.68pt"
    viewBox="0 0 7.68 7.68">
<defs/>
<path id="shape0" transform="matrix(0.41881341079375 0 0 0.488629505470589 -34.6949364094657 0.827798702306172)" fill="none" stroke="#000000" stroke-width="1.0896" stroke-linecap="round" stroke-linejoin="miter" stroke-miterlimit="1.91999995708466" d="M0.233356 0C-0.149637 0 0.0117109 11.1858 0.201761 12.6112" sodipodi:nodetypes="cc"/><path id="shape1" transform="matrix(0.41881341079375 0 0 0.488629505470589 -37.7960007954001 3.16982230325112)" fill="none" stroke="#000000" stroke-width="1.0896" stroke-linecap="round" stroke-linejoin="miter" stroke-miterlimit="1.91999995708466" d="M0.961732 1.24106C-3.84202 1.24106 10.6739 1.22252 15.3195 0" sodipodi:nodetypes="cc"/><path id="shape2" transform="matrix(0.392043784281695 0.0261372471883674 -0.0274411234306011 0.360129630813226 -28.7055372901881 0.48)" fill="none" stroke="#000000" stroke-width="1.0896" stroke-linecap="round" stroke-linejoin="miter" stroke-miterlimit="1.91999995708466" d="M9.60816 0C5.70126 4.73407 3.81328 8.25584 0 12.3717" sodipodi:nodetypes="cc"/><path id="shape3" transform="matrix(0.432149554816034 0.0288110670017757 -0.0302265757261953 0.396685127872124 -27.4675808348284 1.45788971794321)" fill="none" stroke="#000000" stroke-width="1.0896" stroke-linecap="round" stroke-linejoin="miter" stroke-miterlimit="1.91999995708466" d="M8.58901 0C5.30872 4.35059 3.49804 6.6958 0 10.9093" sodipodi:nodetypes="cc"/><path id="shape4" transform="matrix(0.452892922424548 0.0301940108168301 -0.0294586113236149 0.38660657779095 -29.9281689658716 5.16347256233839)" fill="none" stroke="#000000" stroke-width="1.0896" stroke-linecap="round" stroke-linejoin="miter" stroke-miterlimit="1.91999995708466" d="M1.53661 0.00794425C1.53661 -0.212076 0.251432 4.20307 0 5.18373" sodipodi:nodetypes="cc"/><path id="shape5" transform="matrix(0.432149554816034 0.0288110670017757 -0.0302265757261953 0.396685127872124 -29.8182760466771 5.85181349876248)" fill="none" stroke="#000000" stroke-width="1.0896" stroke-linecap="round" stroke-linejoin="miter" stroke-miterlimit="1.91999995708466" d="M4.27951 0C3.53465 1.61384 1.1761 2.33309 0 3.50919" sodipodi:nodetypes="cc"/><path id="shape6" transform="matrix(0.392043784281695 0.0261372471883674 -0.0274411234306011 0.360129630813226 -29.1683976831381 5.40052226088731)" fill="none" stroke="#000000" stroke-width="1.0896" stroke-linecap="round" stroke-linejoin="miter" stroke-miterlimit="1.91999995708466" d="M0 0C0.123505 0.0617527 4.13614 3.27327 2.36441 2.0356" sodipodi:nodetypes="cc"/><path id="shape7" transform="matrix(0.452892922424548 0.0301940108168301 -0.0294586113236149 0.38660657779095 -29.6997071960505 6.21709585199592)" fill="none" stroke="#000000" stroke-width="1.0896" stroke-linecap="round" stroke-linejoin="miter" stroke-miterlimit="1.91999995708466" d="M1.32687 1.15911C-0.682029 -0.793289 2.27806 2.3466 0 0" sodipodi:nodetypes="cc"/><path id="shape8" transform="matrix(0.392043784281695 0.0261372471883674 -0.0274411234306011 0.360129630813226 -24.7425817399201 0.631255701790404)" fill="none" stroke="#000000" stroke-width="1.0896" stroke-linecap="round" stroke-linejoin="miter" stroke-miterlimit="1.91999995708466" d="M0 0C1.47421 1.06904 1.82265 1.10862 3.04196 2.04954" sodipodi:nodetypes="cc"/><path id="shape9" transform="matrix(0.392043784281695 0.0261372471883674 -0.0274411234306011 0.360129630813226 -25.2706140666024 1.23497825310098)" fill="none" stroke="#000000" stroke-width="1.0896" stroke-linecap="round" stroke-linejoin="miter" stroke-miterlimit="1.91999995708466" d="M0.145734 0.044694C-0.619089 -0.337717 1.83493 1.85486 2.67342 2.02255" sodipodi:nodetypes="cc"/><path id="shape10" transform="matrix(0.639044492479149 0 0 0.647025246275272 -21.3795885638121 0.731022954956411)" fill="none" stroke="#000000" stroke-width="0.96" stroke-linecap="round" stroke-linejoin="miter" stroke-miterlimit="1.91999995708466" d="M0 8.30965C0.345016 9.53635 5.16189 10.4853 7.02933 7.44565C11.1677 0.442957 0.32 -3.03527 0.32 3.38165" sodipodi:nodetypes="ccc"/><path id="shape11" transform="matrix(0.639044492479149 0 0 0.647025246275272 -22.1566666666668 1.44208756008901)" fill="none" stroke="#000000" stroke-width="0.96" stroke-linecap="round" stroke-linejoin="miter" stroke-miterlimit="1.91999995708466" d="M0 0C0.300557 1.60378 0.864521 4.37081 1.49333 3.30667" sodipodi:nodetypes="cc"/><path id="shape12" transform="matrix(0.639044492479149 0 0 0.647025246275272 -21.0932966311814 2.49113115938332)" fill="none" stroke="#000000" stroke-width="0.96" stroke-linecap="round" stroke-linejoin="miter" stroke-miterlimit="1.91999995708466" d="M2.48533 0C1.64339 0.565333 0.609793 1.42452 0 1.97333" sodipodi:nodetypes="cc"/><path id="shape13" transform="matrix(0.813499984972115 0 0 0.989556555269978 -14.3350812761741 3.77631029541891)" fill="none" stroke="#000000" stroke-width="0.72" stroke-linecap="round" stroke-linejoin="miter" stroke-miterlimit="1.91999995708466" d="M0 0.354973C3.05672 0.235934 2.84001 0.289093 7.07447 0" sodipodi:nodetypes="cc"/><path id="shape14" transform="matrix(0.813499984972115 0 0 0.989556555269978 -14.5670000000004 0.770999999999684)" fill="none" stroke="#000000" stroke-width="0.72" stroke-linecap="round" stroke-linejoin="miter" stroke-miterlimit="1.91999995708466" d="M0 3.456C1.58452 1.44954 2.26284 1.04 3.728 0" sodipodi:nodetypes="cc"/><path id="shape15" transform="matrix(0.813499984972115 0 0 0.989556555269978 -14.4303320025251 4.23048971722352)" fill="none" stroke="#000000" stroke-width="0.72" stroke-linecap="round" stroke-linejoin="miter" stroke-miterlimit="1.91999995708466" d="M0 0C1.25567 1.00763 1.62514 1.56472 3.744 2.728" sodipodi:nodetypes="cc"/><path id="shape16" transform="matrix(1.14403886554623 0 0 1.10776277724201 -4.1261918767508 0.833333333333574)" fill="none" stroke="#000000" stroke-width="0.6096" stroke-linecap="round" stroke-linejoin="miter" stroke-miterlimit="1.91999995708466" d="M0 0C0.772867 0.853333 1.81941 1.74407 2.74133 2.70933" sodipodi:nodetypes="cc"/><path id="shape17" transform="matrix(1.14403886554623 0 0 1.10776277724201 -4.3946596638656 3.74601092896185)" fill="none" stroke="#000000" stroke-width="0.6096" stroke-linecap="round" stroke-linejoin="miter" stroke-miterlimit="1.91999995708466" d="M2.93867 0C1.75479 1.13416 1.10539 2.17183 0 2.90133" sodipodi:nodetypes="cc"/><path id="shape18" transform="matrix(1.14403886554623 0 0 1.10776277724201 -6.7986666666667 3.72800782514632)" fill="none" stroke="#000000" stroke-width="0.6096" stroke-linecap="round" stroke-linejoin="miter" stroke-miterlimit="1.91999995708466" d="M4.8 0.0215852C2.44285 -0.0832705 2.07629 0.233293 0 0.133585" sodipodi:nodetypes="cc"/><path id="shape21" transform="matrix(1.23252467105275 0 0 1.29256644518279 6.7804194078947 0.674999999999778)" fill="none" stroke="#000000" stroke-width="0.6096" stroke-linecap="round" stroke-linejoin="miter" stroke-miterlimit="1.91999995708466" d="M0 0" sodipodi:nodetypes="c"/><path id="shape22" transform="matrix(1.29034276461017 0 0 1.17224703626684 8.7584054374426 2.53112296976438)" fill="none" stroke="#000000" stroke-width="0.6096" stroke-linecap="round" stroke-linejoin="miter" stroke-miterlimit="1.91999995708466" d="M0 0C2.81941 0.451136 3.79975 1.20266 4.41867 3.70133" sodipodi:nodetypes="cc"/><path id="shape23" transform="matrix(1.37231169919822 0.269558063789789 -0.290567031551028 1.22088534080903 9.1090160140194 0.239062324143259)" fill="none" stroke="#000000" stroke-width="0.6096" stroke-linecap="round" stroke-linejoin="miter" stroke-miterlimit="1.91999995708466" d="M0 1.58435C1.23582 0.628767 0.597719 0.746983 2.31096 0" sodipodi:nodetypes="cc"/><path id="shape24" transform="matrix(1.37231169919822 0.269558063789789 -0.290567031551028 1.22088534080903 8.5319253989533 2.69349008190861)" fill="none" stroke="#000000" stroke-width="0.6096" stroke-linecap="round" stroke-linejoin="miter" stroke-miterlimit="1.91999995708466" d="M0 0C0.681322 1.01918 0.856937 0.692813 1.96337 1.7438" sodipodi:nodetypes="cc"/><path id="shape25" transform="matrix(0.754783779290918 0 0 0.893604953879548 17.2513022707572 3.45566393931636)" fill="none" stroke="#000000" stroke-width="0.6096" stroke-linecap="round" stroke-linejoin="miter" stroke-miterlimit="1.91999995708466" d="M0 2.264C3.22886 2.16727 9.53767 2.8267 6.288 0" sodipodi:nodetypes="cc"/><path id="shape26" transform="matrix(0.754783779290918 0 0 0.893604953879548 17.2049485852337 1.01999464370445)" fill="none" stroke="#000000" stroke-width="0.6096" stroke-linecap="round" stroke-linejoin="miter" stroke-miterlimit="1.91999995708466" d="M0.0614133 2.14166C-0.419073 1.11255 2.02481 -1.41373 3.73341 1.03766" sodipodi:nodetypes="cc"/><path id="shape27" transform="matrix(0.754783779290918 0 0 0.893604953879548 20.2402460367492 1.81895454365136)" fill="none" stroke="#000000" stroke-width="0.6096" stroke-linecap="round" stroke-linejoin="miter" stroke-miterlimit="1.91999995708466" d="M0 0.215581C1.36805 -0.544905 2.42638 0.897256 2.208 1.59158" sodipodi:nodetypes="cc"/><path id="shape28" transform="matrix(0.754783779290918 0 0 0.893604953879548 15.842493960614 2.946007550045)" fill="none" stroke="#000000" stroke-width="0.6096" stroke-linecap="round" stroke-linejoin="miter" stroke-miterlimit="1.91999995708466" d="M1.56251 0.0103376C-0.333804 -0.207617 -0.774172 3.0961 1.77051 2.82634" sodipodi:nodetypes="cc"/><path id="shape29" transform="matrix(0.754783779290918 0 0 0.893604953879548 16.9856183804467 1.11084454033642)" fill="none" stroke="#000000" stroke-width="0.6096" stroke-linecap="round" stroke-linejoin="miter" stroke-miterlimit="1.91999995708466" d="M7.368 0C5.38333 1.52865 1.63416 4.55703 0 6.512" sodipodi:nodetypes="cc"/><path id="shape30" transform="matrix(0.496928181161217 0 0 0.518760639710523 -14.2350000000002 9.83396490051483)" fill="none" stroke="#000000" stroke-width="1.44" stroke-linecap="round" stroke-linejoin="bevel" d="M0 9.57867C0.903311 5.19355 5.3272 0.291631 11.2853 0" sodipodi:nodetypes="cc"/><path id="shape31" transform="matrix(0.496928181161217 0 0 0.518760639710523 -11.9824604691034 8.61100016926516)" fill="none" stroke="#000000" stroke-width="1.44" stroke-linecap="round" stroke-linejoin="bevel" d="M0.971072 0.106808C-2.69929 -0.111564 5.11253 -0.21311 6.58174 2.06947" sodipodi:nodetypes="cc"/><path id="shape32" transform="matrix(0.496928181161217 0 0 0.518760639710523 -10.5736332702031 9.83396490051483)" fill="none" stroke="#000000" stroke-width="1.44" stroke-linecap="round" stroke-linejoin="bevel" d="M0 5.32267C1.66916 2.25604 2.82859 1.98165 3.90667 0" sodipodi:nodetypes="cc"/><path id="shape33" transform="matrix(0.5605613151024 0 0 0.534660436114004 -21.6915199289598 9.91319580569648)" fill="none" stroke="#000000" stroke-width="1.44" stroke-linecap="round" stroke-linejoin="bevel" d="M0 0C3.328 0.844257 4.14399 0.915304 6.66036 2.82313C8.43119 4.06962 9.672 7.63443 10.048 8.86133" sodipodi:nodetypes="ccc"/><path id="shape34" transform="matrix(0.5605613151024 0 0 0.534660436114004 -22.0368256990629 8.56299999999994)" fill="none" stroke="#000000" stroke-width="1.44" stroke-linecap="round" stroke-linejoin="bevel" d="M0 2.31733C2.28842 0.201922 5.60124 0 6.888 0" sodipodi:nodetypes="cc"/><path id="shape35" transform="matrix(0.5605613151024 0 0 0.534660436114004 -22.1310000000001 9.91319580569648)" fill="none" stroke="#000000" stroke-width="1.44" stroke-linecap="round" stroke-linejoin="bevel" d="M0 0C1.97743 2.42514 2.66133 3.07859 3.80533 5.34667" sodipodi:nodetypes="cc"/><path id="shape36" transform="matrix(0.410055643879173 0 0 0.475121784051166 -29.2595226285111 9.60502467741606)" fill="none" stroke="#000000" stroke-width="1.44" stroke-linecap="round" stroke-linejoin="bevel" d="M0 0.108C3.21863 0.076 9.47379 0.0542312 11.892 0" sodipodi:nodetypes="cc"/><path id="shape37" transform="matrix(0.410055643879173 0 0 0.475121784051166 -24.8568317439889 8.36432010909246)" fill="none" stroke="#000000" stroke-width="1.44" stroke-linecap="round" stroke-linejoin="bevel" d="M1.41119 2.59134C1.36319 2.35137 0.145917 0 0 0" sodipodi:nodetypes="cc"/><path id="shape38" transform="matrix(0.410055643879173 0 0 0.475121784051166 -28.6395184949658 8.26950647072552)" fill="none" stroke="#000000" stroke-width="1.44" stroke-linecap="round" stroke-linejoin="bevel" d="M8.612 0.265493C5.72828 -0.0490943 2.4568 -0.12731 0 0.269493" sodipodi:nodetypes="cc"/><path id="shape39" transform="matrix(0.410055643879173 0 0 0.475121784051166 -29.4366666666669 8.48556666926457)" fill="none" stroke="#000000" stroke-width="1.44" stroke-linecap="round" stroke-linejoin="bevel" d="M1.64722 0C1.07125 0.634985 0.669699 1.09263 0 2.12415" sodipodi:nodetypes="cc"/><path id="shape40" transform="matrix(0.410055643879173 0 0 0.475121784051166 -28.7046699662947 9.85778946653129)" fill="none" stroke="#000000" stroke-width="1.44" stroke-linecap="round" stroke-linejoin="bevel" d="M0.0108844 0C-0.107953 0.38622 0.777695 7.53694 1.13888 9.688" sodipodi:nodetypes="cc"/><path id="shape41" transform="matrix(0.410055643879173 0 0 0.475121784051166 -25.2409773184952 10.0193308731087)" fill="none" stroke="#000000" stroke-width="1.44" stroke-linecap="round" stroke-linejoin="bevel" d="M1.064 0C0.628 1.85871 0.448 7.41729 0 9.296" sodipodi:nodetypes="cc"/><path id="shape42" transform="matrix(0.410055643879173 0 0 0.475121784051166 -28.1261288288291 14.5291455347619)" fill="none" stroke="#000000" stroke-width="1.44" stroke-linecap="round" stroke-linejoin="bevel" d="M0 0.108087C0.987361 0.108087 4.97525 -0.0430024 6.048 0.0120869" sodipodi:nodetypes="cc"/><path id="shape43" transform="matrix(0.410055643879173 0 0 0.475121784051166 -27.4208510019583 11.0113851582075)" fill="none" stroke="#000000" stroke-width="1.44" stroke-linecap="round" stroke-linejoin="bevel" d="M4.36052e-05 0C-0.00522137 0.897624 0.468044 4.50316 0.468044 6.552" sodipodi:nodetypes="cc"/><path id="shape44" transform="matrix(0.410055643879173 0 0 0.475121784051166 -26.1627824059356 11.0379919781144)" fill="none" stroke="#000000" stroke-width="1.44" stroke-linecap="round" stroke-linejoin="bevel" d="M0.364 0C0.283588 1.50821 0.0383424 5.64151 0 6.96" sodipodi:nodetypes="cc"/><path id="shape19" transform="matrix(0.508730863749982 0 0 0.513084112149533 -6.51461120977246 12.2982367601246)" fill="none" stroke="#000000" stroke-width="1.6728" stroke-linecap="round" stroke-linejoin="bevel" d="M0.073452 0C-0.324732 1.76897 0.982173 4.12568 1.92087 4.23238" sodipodi:nodetypes="cc"/><path id="shape20" transform="matrix(0.508730863749982 0 0 0.513084112149533 -5.13663741465982 8.55533333333334)" fill="none" stroke="#000000" stroke-width="1.6728" stroke-linecap="round" stroke-linejoin="bevel" d="M0 11.1223C4.82342 7.41637 7.77024 2.33361 9.07481 0" sodipodi:nodetypes="cc"/><path id="shape45" transform="matrix(0.519920318725099 0 0 0.499526066350711 1.03733333333334 1.22037345971564)" fill="none" stroke="#000000" stroke-width="1.6728" stroke-linecap="round" stroke-linejoin="bevel" d="M10.7093 0C7.28557 2.00703 2.20441 7.39104 0 10.6347" sodipodi:nodetypes="cc"/><path id="shape46" transform="matrix(0.519920318725099 0 0 0.499526066350711 1.27025763612219 0.911333333333331)" fill="none" stroke="#000000" stroke-width="1.6728" stroke-linecap="round" stroke-linejoin="bevel" d="M0 0C1.60941 1.43327 7.31663 9.27577 8.512 11.2267" sodipodi:nodetypes="cc"/>
</svg>

<svg xmlns="http://www.w3.org/2000/svg" width="10.24" height="10.24" viewBox="0 0 7.68 7.68">
<g stroke="red">
  <path transform="matrix(.41881 0 0 .48863 -34.7 .83)" fill="none" stroke-width="1.09" stroke-linecap="round" stroke-miterlimit="1.92" d="M.23 0C-.15 0 .01 11.19.2 12.61"/>
  <path transform="matrix(.41881 0 0 .48863 -37.8 3.17)" fill="none" stroke-width="1.09" stroke-linecap="round" stroke-miterlimit="1.92" d="M.96 1.24c-4.8 0 9.71-.02 14.36-1.24"/>
  <path transform="matrix(.39204 .02614 -.02744 .36013 -28.7 .48)" fill="none" stroke-width="1.09" stroke-linecap="round" stroke-miterlimit="1.92" d="M9.6 0C5.7 4.73 3.82 8.26 0 12.37"/>
  <path transform="matrix(.43215 .02881 -.03023 .39669 -27.47 1.46)" fill="none" stroke-width="1.09" stroke-linecap="round" stroke-miterlimit="1.92" d="M8.59 0C5.3 4.35 3.49 6.7 0 10.9"/>
  <path transform="matrix(.4529 .0302 -.02946 .3866 -29.93 5.16)" fill="none" stroke-width="1.09" stroke-linecap="round" stroke-miterlimit="1.92" d="M1.54 0C1.54-.2.25 4.2 0 5.19"/>
  <path transform="matrix(.43215 .02881 -.03023 .39669 -29.82 5.85)" fill="none" stroke-width="1.09" stroke-linecap="round" stroke-miterlimit="1.92" d="M4.28 0C3.53 1.61 1.18 2.33 0 3.5"/>
  <path transform="matrix(.39204 .02614 -.02744 .36013 -29.17 5.4)" fill="none" stroke-width="1.09" stroke-linecap="round" stroke-miterlimit="1.92" d="M0 0c.12.06 4.14 3.27 2.36 2.04"/>
  <path transform="matrix(.4529 .0302 -.02946 .3866 -29.7 6.22)" fill="none" stroke-width="1.09" stroke-linecap="round" stroke-miterlimit="1.92" d="M1.33 1.16C-.68-.8 2.28 2.35 0 0"/>
  <path transform="matrix(.39204 .02614 -.02744 .36013 -24.74 .63)" fill="none" stroke-width="1.09" stroke-linecap="round" stroke-miterlimit="1.92" d="M0 0c1.47 1.07 1.82 1.1 3.04 2.05"/>
  <path transform="matrix(.39204 .02614 -.02744 .36013 -25.27 1.23)" fill="none" stroke-width="1.09" stroke-linecap="round" stroke-miterlimit="1.92" d="M.15.04c-.77-.38 1.68 1.81 2.52 1.98"/>
  <path transform="matrix(.63904 0 0 .64703 -21.38 .73)" fill="none" stroke-width=".96" stroke-linecap="round" stroke-miterlimit="1.92" d="M0 8.31c.35 1.23 5.16 2.18 7.03-.86C11.17.45.32-3.04.32 3.38"/>
  <path transform="matrix(.63904 0 0 .64703 -22.16 1.44)" fill="none" stroke-width=".96" stroke-linecap="round" stroke-miterlimit="1.92" d="M0 0c.3 1.6.86 4.37 1.5 3.3"/>
  <path transform="matrix(.63904 0 0 .64703 -21.1 2.5)" fill="none" stroke-width=".96" stroke-linecap="round" stroke-miterlimit="1.92" d="M2.49 0C1.64.57.6 1.42 0 1.97"/>
  <path transform="matrix(.8135 0 0 .98956 -14.34 3.78)" fill="none" stroke-width=".72" stroke-linecap="round" stroke-miterlimit="1.92" d="M0 .35C3.06.24 2.84.3 7.07 0"/>
  <path transform="matrix(.8135 0 0 .98956 -14.57 .77)" fill="none" stroke-width=".72" stroke-linecap="round" stroke-miterlimit="1.92" d="M0 3.46C1.58 1.45 2.26 1.04 3.73 0"/>
  <path transform="matrix(.8135 0 0 .98956 -14.43 4.23)" fill="none" stroke-width=".72" stroke-linecap="round" stroke-miterlimit="1.92" d="M0 0c1.26 1 1.63 1.56 3.74 2.73"/>
  <path transform="matrix(1.14404 0 0 1.10776 -4.13 .83)" fill="none" stroke-width=".61" stroke-linecap="round" stroke-miterlimit="1.92" d="M0 0c.77.85 1.82 1.74 2.74 2.7"/>
  <path transform="matrix(1.14404 0 0 1.10776 -4.4 3.75)" fill="none" stroke-width=".61" stroke-linecap="round" stroke-miterlimit="1.92" d="M2.94 0C1.75 1.13 1.1 2.17 0 2.9"/>
  <path transform="matrix(1.14404 0 0 1.10776 -6.8 3.73)" fill="none" stroke-width=".61" stroke-linecap="round" stroke-miterlimit="1.92" d="M4.8.02C2.44-.08 2.08.23 0 .13"/>
  <path transform="matrix(1.29034 0 0 1.17225 8.76 2.53)" fill="none" stroke-width=".61" stroke-linecap="round" stroke-miterlimit="1.92" d="M0 0c2.82.45 3.8 1.2 4.42 3.7"/>
  <path transform="matrix(1.37231 .26956 -.29057 1.22089 9.1 .24)" fill="none" stroke-width=".61" stroke-linecap="round" stroke-miterlimit="1.92" d="M0 1.58C1.24.63.6.75 2.31 0"/>
  <path transform="matrix(1.37231 .26956 -.29057 1.22089 8.53 2.7)" fill="none" stroke-width=".61" stroke-linecap="round" stroke-miterlimit="1.92" d="M0 0c.68 1.02.86.7 1.96 1.74"/>
  <path transform="matrix(.75478 0 0 .8936 17.25 3.46)" fill="none" stroke-width=".61" stroke-linecap="round" stroke-miterlimit="1.92" d="M0 2.26c3.23-.1 9.54.57 6.29-2.26"/>
  <path transform="matrix(.75478 0 0 .8936 17.2 1.02)" fill="none" stroke-width=".61" stroke-linecap="round" stroke-miterlimit="1.92" d="M.06 2.14c-.48-1.03 1.96-3.55 3.67-1.1"/>
  <path transform="matrix(.75478 0 0 .8936 20.24 1.82)" fill="none" stroke-width=".61" stroke-linecap="round" stroke-miterlimit="1.92" d="M0 .22C1.37-.54 2.43.9 2.2 1.59"/>
  <path transform="matrix(.75478 0 0 .8936 15.84 2.95)" fill="none" stroke-width=".61" stroke-linecap="round" stroke-miterlimit="1.92" d="M1.56.01c-1.9-.22-2.33 3.09.21 2.82"/>
  <path transform="matrix(.75478 0 0 .8936 16.99 1.11)" fill="none" stroke-width=".61" stroke-linecap="round" stroke-miterlimit="1.92" d="M7.37 0C5.38 1.53 1.63 4.56 0 6.51"/>
  <path transform="matrix(.49693 0 0 .51876 -14.24 9.83)" fill="none" stroke-width="1.44" stroke-linecap="round" stroke-linejoin="bevel" d="M0 9.58C.9 5.19 5.33.29 11.29 0"/>
  <path transform="matrix(.49693 0 0 .51876 -11.98 8.61)" fill="none" stroke-width="1.44" stroke-linecap="round" stroke-linejoin="bevel" d="M.97.1C-2.7-.1 5.11-.2 6.58 2.08"/>
  <path transform="matrix(.49693 0 0 .51876 -10.57 9.83)" fill="none" stroke-width="1.44" stroke-linecap="round" stroke-linejoin="bevel" d="M0 5.32C1.67 2.26 2.83 1.98 3.9 0"/>
  <path transform="matrix(.56056 0 0 .53466 -21.7 9.91)" fill="none" stroke-width="1.44" stroke-linecap="round" stroke-linejoin="bevel" d="M0 0c3.33.84 4.14.92 6.66 2.82 1.77 1.25 3.01 4.81 3.39 6.04"/>
  <path transform="matrix(.56056 0 0 .53466 -22.04 8.56)" fill="none" stroke-width="1.44" stroke-linecap="round" stroke-linejoin="bevel" d="M0 2.32C2.29.2 5.6 0 6.89 0"/>
  <path transform="matrix(.56056 0 0 .53466 -22.13 9.91)" fill="none" stroke-width="1.44" stroke-linecap="round" stroke-linejoin="bevel" d="M0 0c1.98 2.43 2.66 3.08 3.8 5.35"/>
  <path transform="matrix(.41006 0 0 .47512 -29.26 9.6)" fill="none" stroke-width="1.44" stroke-linecap="round" stroke-linejoin="bevel" d="M0 .1C3.22.09 9.47.06 11.9 0"/>
  <path transform="matrix(.41006 0 0 .47512 -24.86 8.36)" fill="none" stroke-width="1.44" stroke-linecap="round" stroke-linejoin="bevel" d="M1.41 2.6C1.36 2.34.15 0 0 0"/>
  <path transform="matrix(.41006 0 0 .47512 -28.64 8.27)" fill="none" stroke-width="1.44" stroke-linecap="round" stroke-linejoin="bevel" d="M8.61.27C5.73-.05 2.46-.13 0 .27"/>
  <path transform="matrix(.41006 0 0 .47512 -29.44 8.49)" fill="none" stroke-width="1.44" stroke-linecap="round" stroke-linejoin="bevel" d="M1.65 0C1.07.63.67 1.1 0 2.12"/>
  <path transform="matrix(.41006 0 0 .47512 -28.7 9.86)" fill="none" stroke-width="1.44" stroke-linecap="round" stroke-linejoin="bevel" d="M.01 0C-.1.39.78 7.54 1.14 9.69"/>
  <path transform="matrix(.41006 0 0 .47512 -25.24 10.02)" fill="none" stroke-width="1.44" stroke-linecap="round" stroke-linejoin="bevel" d="M1.06 0C.63 1.86.45 7.42 0 9.3"/>
  <path transform="matrix(.41006 0 0 .47512 -28.13 14.53)" fill="none" stroke-width="1.44" stroke-linecap="round" stroke-linejoin="bevel" d="M0 .1C.99.1 4.98-.03 6.05.02"/>
  <path transform="matrix(.41006 0 0 .47512 -27.42 11.01)" fill="none" stroke-width="1.44" stroke-linecap="round" stroke-linejoin="bevel" d="M0 0c0 .9.47 4.5.47 6.55"/>
  <path transform="matrix(.41006 0 0 .47512 -26.16 11.04)" fill="none" stroke-width="1.44" stroke-linecap="round" stroke-linejoin="bevel" d="M.36 0C.28 1.5.04 5.64 0 6.96"/>
  <path transform="matrix(.50873 0 0 .51308 -6.51 12.3)" fill="none" stroke-width="1.67" stroke-linecap="round" stroke-linejoin="bevel" d="M.07 0c-.4 1.77.91 4.13 1.85 4.23"/>
  <path transform="matrix(.50873 0 0 .51308 -5.14 8.56)" fill="none" stroke-width="1.67" stroke-linecap="round" stroke-linejoin="bevel" d="M0 11.12C4.82 7.42 7.77 2.33 9.07 0"/>
  <path transform="matrix(.51992 0 0 .49953 1.04 1.22)" fill="none" stroke-width="1.67" stroke-linecap="round" stroke-linejoin="bevel" d="M10.7 0C7.3 2 2.2 7.4 0 10.63"/>
  <path transform="matrix(.51992 0 0 .49953 1.27 .91)" fill="none" stroke-width="1.67" stroke-linecap="round" stroke-linejoin="bevel" d="M0 0c1.6 1.43 7.32 9.28 8.51 11.23"/>
</g>
</svg>
